X:135
T:Out of Nowhere
C:David Peters (w/Kelly Lancaster)
N:TablEdited by Steve Keating
L:1/8
Q:1/4=185
M:4/4
K:G
"Gmaj7"DE ^FA z4 | z2 G2 DE z2 |"Bbm7"=F/F/F/F/ F/F/F/F/ F/F/F/F/ F/F/F | "Eb7"z8 | "Gmaj7"DE FA z4 | 
z2 zG DE z=F | "Bm7"F4 zB zF | "E7b9"=F/F/F/F/ F/F/F/F/ F/F/F/F/ F2 | "Am7"E=F Ec z4 | 
"E7b9"E=F EB z2 Bz/B/ | "Am7"B/B/B/B/ B/B/B/B/ B/B/B/B/ B/B/A/A/ | A/A/A/A/ A/A/A/A/ A/A/A/A/ A2 | "Eb7"^A=A GG z2 G2 | 
^AG AG A2 cd | "D7sus4"zd dd dd dd | "D7"de cd Bc AG | "Gmaj7"DE FA A/A/A/A/ A/A/A/A/ | 
A2 G2 zD E2 | "Bbm7"=F/F/F/F/ F/F/F/F/ F/F/F/F/ F/F/F/F/ | "Eb7"=F/F/F/F/ F/F/F/F/ F/F/F/F/ F2 | 
"Gmaj7"DE FA z4 | z2 G2 DE z=F | "Bm7"F/F/F/F/ F/F/F/F/ zB zF | "Eb7"=F/F/F/F/ F/F/F/F/ F/F/F/F/ F2 | 
"Am7"E=F Ec z4 | "E7"E=F EB z2 cd | "Cm7"de ee ee ee | "Cm7"B2 zA z4 | "Bm7"AF zG E2 F2 | 
"Am7"D4 "D7"B4 | "Gmaj7"G^a bf "G7"=ag ^df | "Am7"eB dc "D7"BA GF | z2 DB, D2 B,A, | 
B,2 z^A, C^D C^C | ^Gc ^A2 ^d=f c'^a | ^g=f ^d^c =c^G ^A=G | AB da gB dg | fB df ed BA | 
B2 dB AF E2 | ^GB de =fg/f/ ed | c4 zE GB | z4 zB cd | de dc dc BA | d^c =c^G BG AA | 
^C^D AG DG ^A^d | ^cA ce ag fe | BA dc ^GF B^A | =FE A^G ^D=D FD | B,D FA zF GA | 
fA eG dE BE | ^A,/C/^D/C/ ^C/=F/^G/c/ ^A/c/^c/^d/ =f/^g/c'/^a/ | ^g/=f/^d/^c/ =c/^G/B/G/ A/=G/F/E/ D/B,/C/D/ | 
GB df gf zb | zf e/f/e/d/ ed A/B/A/G/ | AF E/F/E/D/ B,A, B,D | ^GB de =fg/f/ ed | 
d/^c/=c/^G/ B/G/A/B/ c/d/e/g/ zb | a^g d2 dd dA | cA Bc BA A[g^d] | z[g^d] z[gd] [gd]d zd | 
dA Bd ^cA ^Ad | cA DE FA zA | E/F/z DB, DA, (3B,DE | FG Ad cB AF | G8 | z7/1F | 
GB df ag fd | c^c ^A=c GA =F^F | z=F/^D/ ^C/=C/D zC ^C2 | B,F AF (3GAB fe | dA/B/ dd (3^A=AG EG | 
B,2 B,/^C/D/E/ =F/^F/A/F/ ^G/A/B/^c/ | e/^d/=d/B/ ^c/A/B/c/ d/e/f/a/ ^c'/a/e/c/ | 
b/^g/e/^c/ a/f/d/B/ =g/e/d/g/ e/d/=c/A/ | BA ^G=F ED DG, | A,/B,/C/D/ ^D/E/=D/^D/ EA Bc | 
de ga ge [g^d][gd] | z^c [g^d][gd] zA [gd][gd] | zA [g^d][gd] zA c=d | Bc AB GA FG | 
EF AE CD EE | F2 DF GB (3dfa | gf z2 b/f/e/d/ B/A/a/f/ | e/d/c cc ^cG ^AG | =F^D =DC ^A,A, A,2 | 
z2 zB, DF AF | A/B/d fe dB AG | A2 FA G2 FG | ^GA Bd e=f eg | aa aa a/g/e/^d/ =d/c/A/G/ | 
c/A/G/c/ A/G/E/D/ {^D}=D/C/D/^D/ =D/C/A,/G,/ | A,/B,/C/D/ ^D/=F/A/B/ ^cd eg | 
bg ab g^d =fg | cd ec AB cA | FG AF DE FA | GB, DG FB, zE | ED B,A, G,A, B,D | 
E8 | DE FA z4 | z2 G2 DE z2 | =F/F/F/F/ F/F/F/F/ F/F/F/F/ F/F/F | z8 | DE FA z4 | 
z2 zG DE z=F | F4 zB zF | =F/F/F/F/ F/F/F/F/ F/F/F/F/ F2 | E=F Ec z4 | E=F EB z2 cd | 
de ee ee ee | B2 zA z4 | AF zG E2 F2 | D4 B4 | AF zG E2 F2 | D4 B4 | AF zG E2 F2 | 
D4 B4 | G2 g=f ^ag f^c | d=f ^c/=c/^A G=F AG | =FD FD DF DC | ^A,B, G,6 | [f8B8D8G,8] | 


